X: 32
T: Pana sercem wesołym wspomieńcie, cnotliwi,
C: Mikołaj Gomółka
%%abc-version 2.0
%%abcx-abcm2ps-target-version 5.9.1 (29 Sep 2008)
%%abc-creator hum2abc beta
%%abcx-conversion-date 2021/10/04 07:59:09
%%abc-edited-by Anna Matuszewska
%%abcx-initial-encoding-date 2020-02-07
%%humdrum-veritas 41606319
%%humdrum-veritas-data 4210334326
%%linebreak <none>
%%barnumbers 0
L: 1/4
M: C|
N: Derived from pl-wn--sd-xvi-qu-273--033_gomolka-mikolaj--pana-sercem-wesolym-wspomiencie-cnotliwi.krn
%%staves [1 2 3 4]
V: 1 clef=treble
V: 2
V: 3 clef=alto
V: 4
K: F
[V:1] A2A2d2d2 [I:setbarnb 3]| 
[V:2] F2F2B3B | 
[V:3] C2C2DEFD | 
[V:4] F,2F,2B,CDB, [|] 
[V:1] c2>c2c4 | 
[V:2] AG/F/ G/AG/A4 | 
[V:3] EF2EF4 | 
[V:4] CDC2F,4 [|] 
[V:1] cdecdefe | 
[V:2] G2>A2B2cB | 
[V:3] E2E2D2C2 | 
[V:4] C2C2B,2A,2 [|] 
[V:1] d2d2c4 | 
[V:2] A2GFE4 | 
[V:3] C2B,2C4 | 
[V:4] F,2G,2C,4 [|] 
[V:1] efgef2f2 | 
[V:2] G2c2c2c2 | 
[V:3] G2E2A2A2 | 
[V:4] C2C2A,2F,2 [|] 
[V:1] e4d2c2 | 
[V:2] c2>B2A2G2 | 
[V:3] G4F2E2 | 
[V:4] C2C,2D,2E,2 [|] 
[V:1] c2_B2c4 |]  
[V:2] A2GFE4 |]  
[V:3] D2D2C4 |]  
[V:4] F,2G,2C,4 [|] 


